X: 6
T: Looney Tunes
I: Looney Tunes	S-C	D	square
% C: S-C
M: C|
Z: Transcribed to abc by Mary Lou Knack
R: square
K: D
% P: A
A2| "D"ddc2 B2A2| F6 A2| ddc2 B2=c2| "A"^c8| \
       c2A2 B2A2| c2A2 B2A2| A2_B2 =B2c2| "D"d2f2 d2 :|
% %textfont Times-Roman 12.0
% %text 			to B part of "Chinese Breakdown".
% %text $111/19/98		Formerly R-101

